X:91
T:City Guards
C:As Played by Sons of Liberty
M:6/8
Q:1/8=300
K:G
%%MIDI channel 1
%%MIDI program 72
%%MIDI transpose 8
%%MIDI grace 1/8
%%MIDI ratio 3 1
d|b2a gfe|d2B G2(3(B/B/B/)|BcB BAG|FAA A2d|b2a gfe|d2B G2(3(B/B/B/)|BcB AGF|G2B G2::
d|g2a b2(3(g/g/g/)|gfg afd|g2a b2(3(g/g/g/)|gfg a2d|g2a b2(3(g/g/g/)|gfg afd|efg fga|g2b g2:|
